X:124
T:The Lady in the Boat
B:Joyce, P. W.; "Old Irish Folk Music and Songs"
R:jig
O:Irish
L:1/8
M:6/8
K:D
A|\
dfA d2 A|dfA d2 f|a2 f d2 f|fee e2 A|
dfA d2 A|dfA d2 f|aba gfe|dff d2::e|
fff gfg|a2 g f2 a|agg gff|fee ede|
fff gfg a2 g f2 a|aba gfe|ddf d2:|

